; HEADER_BLOCK_START
; generated by OrcaSlicer 2.1.0 on 2026-01-06 at 20:23:44
; total layer number: 25
; filament_density: 1.24
; filament_diameter: 1.75
; max_z_height: 5.00
; HEADER_BLOCK_END

; THUMBNAIL_BLOCK_START

;
; THUMBNAIL_BLOCK_END

; external perimeters extrusion width = 0.42mm
; perimeters extrusion width = 0.45mm
; infill extrusion width = 0.45mm
; solid infill extrusion width = 0.42mm
; top infill extrusion width = 0.42mm
; first layer extrusion width = 0.50mm

; EXECUTABLE_BLOCK_START
M73 P0 R4
M106 S0
M106 P2 S0
;TYPE:Custom
M190 S55
M104 S220
G90
M83
G1 Z5 F6000
G1 E-0.2 F800
G1 X110 Y-110 F6000
G1 E2 F800
G1 Y-110 X55 Z0.25 F4800
M73 P1 R4
G1 X-55 E8 F2400
M73 P2 R4
G1 Y-109.6 F2400
G1 X55 E5 F2400
M73 P3 R4
G1 Y-110 X55 Z0.45 F4800
G1 X-55 E8 F2400
M73 P4 R4
G1 Y-109.6 F2400
G1 X55 E5 F2400
G92 E0
G90
G21
M83 ; use relative distances for extrusion
; filament start gcode
;right_extruder_material: PLA
SET_PRESSURE_ADVANCE ADVANCE=0.025; Override pressure advance value
M106 S0
M106 P2 S0
;LAYER_CHANGE
;Z:0.2
;HEIGHT:0.2
;BEFORE_LAYER_CHANGE
;0.2
M73 P5 R4
G1 E-.8 F2100
;AFTER_LAYER_CHANGE
;0.2
;_SET_FAN_SPEED_CHANGING_LAYER
SET_VELOCITY_LIMIT ACCEL=500
G1 X9.914 Y0 F30000
G1 Z.4
G1 Z.2
G1 E.8 F2100
;TYPE:Skirt
;WIDTH:0.5
G1 F3000
G1 X9.914 Y15.75 E.58663
G1 X9.521 Y17.212 E.05638
G1 X8.448 Y18.279 E.05638
G1 X7 Y18.664 E.0558
G1 X-7 Y18.664 E.52145
M73 P6 R4
G1 X-8.462 Y18.271 E.05638
G1 X-9.529 Y17.198 E.05638
G1 X-9.914 Y15.75 E.0558
G1 X-9.914 Y-15.75 E1.17326
G1 X-9.521 Y-17.212 E.05638
G1 X-8.448 Y-18.279 E.05638
G1 X-7 Y-18.664 E.0558
G1 X7 Y-18.664 E.52145
G1 X8.462 Y-18.271 E.05638
G1 X9.529 Y-17.198 E.05638
G1 X9.914 Y-15.75 E.0558
G1 X9.914 Y-.04 E.58514
G1 X9.457 Y-.04 F30000
G1 F3000
G1 X9.457 Y15.75 E.58812
G1 X9.065 Y17.081 E.05169
G1 X8.015 Y17.988 E.05169
G1 X7 Y18.207 E.03866
G1 X-7 Y18.207 E.52145
M73 P7 R4
G1 X-8.331 Y17.815 E.05169
G1 X-9.238 Y16.765 E.05169
G1 X-9.457 Y15.75 E.03866
G1 X-9.457 Y-15.75 E1.17326
G1 X-9.065 Y-17.081 E.05169
G1 X-8.015 Y-17.988 E.05169
G1 X-7 Y-18.207 E.03866
G1 X7 Y-18.207 E.52145
G1 X8.331 Y-17.815 E.05169
G1 X9.238 Y-16.765 E.05169
G1 X9.457 Y-15.75 E.03866
G1 X9.457 Y-.08 E.58365
G1 E-.8 F2100
;WIPE_START
G1 F3000
G1 X9.457 Y1.92
;WIPE_END
M73 P7 R3
G1 X2.354 Y4.713 Z.6 F30000
G1 X-1.203 Y6.112 Z.6
G1 Z.2
G1 E.8 F2100
;TYPE:Outer wall
G1 F3000
G1 X-.838 Y5.975 E.01451
G3 X-.448 Y5.886 I.844 J2.771 E.01491
G1 X-.245 Y5.861 E.00764
G3 X-1.238 Y6.131 I.25 J2.886 E.63927
M73 P8 R3
G1 E-.8 F2100
;WIPE_START
G1 F3000
G1 X-.838 Y5.975
G1 X-.448 Y5.886
G1 X-.245 Y5.861
G1 X.148 Y5.855
G1 X.349 Y5.872
G1 X.714 Y5.941
;WIPE_END
G1 X4.797 Y12.179 Z.6 F30000
G1 Z.2
G1 E.8 F2100
G1 F3000
G1 X4.813 Y12.178 E.00058
G3 X5.88 Y14.511 I-.294 J1.545 E.11176
G3 X5.163 Y15.039 I-1.041 J-.662 E.03393
G3 X4.506 Y15.2 I-.674 J-1.329 E.0254
G1 X-4.506 Y15.2 E.33567
G3 X-5.163 Y15.039 I.017 J-1.49 E.0254
G3 X-6.092 Y13.594 I.391 J-1.273 E.06956
G3 X-4.51 Y12.15 I1.596 J.16 E.08737
G1 X4.51 Y12.15 E.33595
G1 X4.757 Y12.175 E.00927
G1 X4.843 Y11.726 F30000
;TYPE:Inner wall
G1 F3000
G1 X4.521 Y11.693 E.01206
G1 X1.981 Y11.693 E.09462
G1 X1.919 Y11.505 E.00739
G2 X1.984 Y6.043 I-1.935 J-2.754 E.2373
G1 X2.046 Y5.855 E.00738
G1 X5.857 Y5.858 E.14195
G1 X5.857 Y-7.357 E.49219
G1 X-5.857 Y-7.357 E.43631
M73 P9 R3
G1 X-5.857 Y5.858 E.49219
G1 X-2.047 Y5.855 E.14192
G1 X-1.982 Y6.039 E.00725
G2 X-1.922 Y11.509 I1.994 J2.713 E.23782
G1 X-1.986 Y11.693 E.00725
G1 X-4.521 Y11.693 E.09441
G2 X-5.806 Y12.159 I.032 J2.091 E.05185
G1 X-6.143 Y12.465 E.01697
G1 X-6.144 Y-8.123 E.76683
G1 X6.144 Y-8.123 E.4577
G1 X6.143 Y12.465 E.76683
G2 X4.901 Y11.731 I-1.824 J1.67 E.05451
G1 X4.883 Y11.73 E.00069
G1 E-.8 F2100
;WIPE_START
G1 F3000
G1 X4.521 Y11.693
G1 X2.885 Y11.693
;WIPE_END
M73 P10 R3
G1 X-.222 Y4.721 Z.6 F30000
G1 X-5.4 Y-6.9 Z.6
G1 Z.2
G1 E.8 F2100
;TYPE:Outer wall
G1 F3000
G1 X5.4 Y-6.9 E.40226
G1 X5.4 Y5.4 E.45813
G1 X-5.4 Y5.4 E.40226
G1 X-5.4 Y-6.86 E.45664
G1 E-.8 F2100
;WIPE_START
G1 F3000
G1 X-3.4 Y-6.867
;WIPE_END
G1 X-5.6 Y-8.58 Z.6 F30000
G1 Z.2
G1 E.8 F2100
G1 F3000
G1 X-5.599 Y-13.407 E.17979
G3 X-5.404 Y-15.13 I6.614 J-.123 E.06477
G1 X5.404 Y-15.13 E.40257
M73 P11 R3
G1 X5.548 Y-14.424 E.02684
G3 X5.599 Y-13.407 I-7.319 J.88 E.03796
G1 X5.6 Y-8.58 E.17979
G1 X-5.56 Y-8.58 E.41567
G1 E-.8 F2100
;WIPE_START
G1 F3000
G1 X-5.576 Y-10.58
;WIPE_END
G1 X-2.333 Y-3.671 Z.6 F30000
G1 X6.6 Y15.355 Z.6
G1 Z.2
G1 E.8 F2100
G1 F3000
G2 X5.472 Y15.462 I.185 J7.978 E.04225
G1 X4.99 Y15.5 E.018
G1 X-4.99 Y15.5 E.37172
G3 X-5.974 Y15.388 I.354 J-7.469 E.03692
G2 X-6.6 Y15.355 I-.641 J6.247 E.02336
G1 X-6.602 Y-15.364 E1.14414
G2 X-5.479 Y-15.5 I-.421 J-8.154 E.04216
G1 X5.479 Y-15.5 E.40813
G1 X5.967 Y-15.416 E.01845
M73 P12 R3
G2 X6.602 Y-15.364 I.713 J-4.731 E.02374
G1 X6.6 Y15.315 E1.14265
G1 X6.372 Y14.922 F30000
;TYPE:Gap infill
;WIDTH:0.116175
G1 F3000
G3 X5.442 Y15.208 I-3.205 J-8.775 E.00581
G1 X5.447 Y15.224 F30000
;WIDTH:0.205578
G1 F3000
G1 X6.372 Y14.854 E.01321
G1 X6.372 Y14.807 F30000
;WIDTH:0.323139
G1 F3000
G1 X5.5 Y15.226 E.0221
G1 X5.557 Y15.218 F30000
;WIDTH:0.494625
G1 F3000
G1 X6.145 Y14.921 E.02426
G1 X6.372 Y14.233 E.02665
G1 X6.372 Y14.171 F30000
;WIDTH:0.36442
G1 F3000
G1 X6.082 Y15.152 E.0268
G1 X6.116 Y15.15 F30000
;WIDTH:0.252909
G1 F3000
G2 X6.283 Y14.418 I-11.109 J-2.925 E.01285
;WIDTH:0.200309
G1 X6.303 Y14.321 E.00126
;WIDTH:0.179655
G1 X6.304 Y14.313 E.0001
;WIDTH:0.153216
G1 X6.329 Y14.126 E.0017
;WIDTH:0.115402
G1 X6.344 Y13.942 E.00109
G1 X6.344 Y13.542 F30000
;WIDTH:0.112239
G1 F3000
G1 X6.332 Y13.384 E.0009
;WIDTH:0.144701
G1 X6.309 Y13.198 E.00155
;WIDTH:0.183128
G1 X6.294 Y13.11 E.00102
;WIDTH:0.221961
G2 X6.277 Y13.019 I-.111 J-.026 E.00139
G1 X6.053 Y12.701 E.00567
G1 X6.039 Y12.713 F30000
;WIDTH:0.151146
G1 F3000
G3 X6.372 Y13.133 I-8.33 J6.959 E.00473
G1 E-.8 F2100
;WIPE_START
G1 F3000
G1 X6.039 Y12.713
;WIPE_END
G1 X3.795 Y11.35 Z.6 F30000
G1 Z.2
G1 E.8 F2100
;TYPE:Bottom surface
;WIDTH:0.5
G1 F4800
G1 X4.321 Y10.824 E.02773
G1 X4.882 Y11.385 E.02956
G1 X5.692 Y11.671 F30000
G1 F4800
G1 X5.692 Y10.256 E.05272
G1 X5.801 Y10.256 E.00403
G1 X5.801 Y9.799 F30000
G1 F4800
G1 X5.235 Y9.799 E.02106
G1 X5.235 Y11.091 E.04815
G1 X4.321 Y10.177 E.04815
G1 X3.148 Y11.35 E.06178
G1 X2.95 Y11.35 F30000
G1 F4800
G1 X2.95 Y10.973 E.01406
G1 X3.407 Y10.174 F30000
G1 F4800
G1 X3.407 Y10.445 E.01008
G1 X4.321 Y9.531 E.04815
G1 X4.778 Y9.988 E.02408
G1 X4.778 Y9.342 E.02408
G1 X5.425 Y9.342 E.02408
G1 X4.968 Y8.884 E.02408
G1 X5.425 Y8.427 E.02408
M73 P13 R3
G1 X4.778 Y8.427 E.02408
G1 X4.778 Y7.781 E.02408
G1 X4.321 Y8.238 E.02408
G1 X3.864 Y7.781 E.02408
G1 X3.864 Y8.427 E.02408
G1 X3.683 Y8.427 E.00674
G1 X4.321 Y8.884 F30000
G1 F4800
G1 X3.864 Y9.342 E.02408
G1 X3.646 Y9.342 E.00813
G1 E-.8 F2100
;WIPE_START
G1 F4800
G1 X3.864 Y9.342
G1 X4.321 Y8.884
;WIPE_END
G1 X3.407 Y7.313 Z.6 F30000
G1 Z.2
G1 E.8 F2100
G1 F4800
G1 X3.407 Y6.678 E.02365
G1 X4.321 Y7.592 E.04815
G1 X5.235 Y6.678 E.04815
G1 X5.235 Y7.97 E.04815
G1 X5.801 Y7.97 E.02106
G1 X5.801 Y7.513 F30000
G1 F4800
G1 X5.692 Y7.513 E.00404
G1 X5.692 Y6.2 E.04891
G1 X5.067 Y6.2 F30000
G1 F4800
G1 X4.321 Y6.945 E.03927
G1 X3.575 Y6.199 E.03931
G1 X2.95 Y6.199 F30000
G1 F4800
G1 X2.95 Y6.528 E.01226
G1 E-.8 F2100
;WIPE_START
G1 F4800
G1 X2.95 Y6.199
;WIPE_END
G1 X4.222 Y6.199 Z.6 F30000
G1 Z.2
G1 E.8 F2100
G1 F4800
G1 X4.321 Y6.299 E.00524
G1 X4.421 Y6.199 E.00524
G1 E-.8 F2100
;WIPE_START
G1 F4800
G1 X4.321 Y6.299
G1 X4.222 Y6.199
;WIPE_END
G1 X5.801 Y8.698 Z.6 F30000
G1 Z.2
G1 E.8 F2100
G1 F4800
G1 X5.614 Y8.884 E.00984
G1 X5.801 Y9.071 E.00984
G1 E-.8 F2100
;WIPE_START
G1 F4800
G1 X5.614 Y8.884
G1 X5.801 Y8.698
;WIPE_END
G1 X.658 Y11.921 Z.6 F30000
G1 Z.2
G1 E.8 F2100
;TYPE:Gap infill
;WIDTH:0.446677
G1 F3000
G2 X1.73 Y11.663 I-7.002 J-31.365 E.03628
G1 X1.735 Y11.679 F30000
;WIDTH:0.3405
G1 F3000
G1 X1.262 Y11.774 E.0117
;WIDTH:0.318643
G1 X1.154 Y11.793 E.00247
;WIDTH:0.277715
G1 X1.039 Y11.815 E.00224
;WIDTH:0.240854
G1 X.931 Y11.83 E.00176
;WIDTH:0.208177
G1 X.818 Y11.847 E.00154
;WIDTH:0.166906
G1 X.598 Y11.872 E.00223
;WIDTH:0.131908
G1 X.287 Y11.893 E.00227
G1 X-.289 Y11.893 F30000
;WIDTH:0.113354
G1 F3000
G1 X-.492 Y11.881 E.00117
;WIDTH:0.145386
G1 X-.716 Y11.859 E.00188
;WIDTH:0.180784
G1 X-.822 Y11.846 E.0012
;WIDTH:0.20922
G1 X-.934 Y11.831 E.00153
;WIDTH:0.241918
G1 X-1.042 Y11.813 E.00177
;WIDTH:0.290018
G3 X-1.742 Y11.687 I3.28 J-20.157 E.01432
G1 X-1.736 Y11.671 F30000
;WIDTH:0.385652
G1 F3000
G1 X-.593 Y11.921 E.03268
M73 P14 R3
G1 E-.8 F2100
;WIPE_START
G1 F3000
G1 X-1.736 Y11.671
;WIPE_END
G1 X-5.801 Y9.072 Z.6 F30000
G1 Z.2
G1 E.8 F2100
;TYPE:Bottom surface
;WIDTH:0.5
G1 F4800
G1 X-5.615 Y8.886 E.0098
G1 X-5.801 Y8.7 E.0098
G1 E-.8 F2100
;WIPE_START
G1 F4800
G1 X-5.615 Y8.886
G1 X-5.801 Y9.072
;WIPE_END
G1 X-4.422 Y6.199 Z.6 F30000
G1 Z.2
G1 E.8 F2100
G1 F4800
G1 X-4.322 Y6.3 E.00529
G1 X-4.221 Y6.199 E.0053
G1 E-.8 F2100
;WIPE_START
G1 F4800
G1 X-4.322 Y6.3
G1 X-4.422 Y6.199
;WIPE_END
G1 X.752 Y5.626 Z.6 F30000
G1 Z.2
G1 E.8 F2100
;TYPE:Gap infill
;WIDTH:0.392806
G1 F3000
G1 X1.799 Y5.875 E.03067
G1 X1.804 Y5.86 F30000
;WIDTH:0.290878
G1 F3000
G1 X1.253 Y5.749 E.01134
;WIDTH:0.269404
G1 X1.145 Y5.73 E.00203
;WIDTH:0.228847
G1 X1.031 Y5.709 E.00175
;WIDTH:0.192313
G1 X.923 Y5.693 E.00133
;WIDTH:0.15995
G1 X.811 Y5.676 E.00108
;WIDTH:0.143628
G1 X.598 Y5.653 E.00176
G1 E-.8 F2100
;WIPE_START
G1 F3000
G1 X.811 Y5.676
;WIPE_END
G1 X-.595 Y5.653 Z.6 F30000
G1 Z.2
G1 E.8 F2100
;WIDTH:0.110312
G1 F3000
G1 X-.705 Y5.663 E.00061
;WIDTH:0.131923
G1 X-.813 Y5.677 E.00079
;WIDTH:0.160512
G1 X-.926 Y5.692 E.00109
;WIDTH:0.192791
G1 X-1.032 Y5.71 E.00131
;WIDTH:0.240574
G2 X-1.806 Y5.85 I3.744 J22.929 E.01267
G1 X-1.8 Y5.868 F30000
;WIDTH:0.335649
G1 F3000
G1 X-.695 Y5.626 E.02699
G1 X-.785 Y5.626 F30000
;WIDTH:0.443942
G1 F3000
G1 X-1.6 Y5.828 E.02742
G1 X-1.71 Y6.125 E.01033
G1 E-.8 F2100
;WIPE_START
G1 F3000
G1 X-1.6 Y5.828
G1 X-.785 Y5.626
;WIPE_END
G1 X-2.951 Y6.519 Z.6 F30000
G1 Z.2
G1 E.8 F2100
;TYPE:Bottom surface
;WIDTH:0.5
G1 F4800
G1 X-2.951 Y6.199 E.01193
G1 X-3.574 Y6.199 F30000
G1 F4800
G1 X-4.322 Y6.946 E.03937
G1 X-5.068 Y6.2 E.03932
G1 X-5.693 Y6.2 F30000
G1 F4800
G1 X-5.693 Y7.514 E.04895
G1 X-5.801 Y7.514 E.00401
G1 X-5.801 Y7.971 F30000
G1 F4800
G1 X-5.236 Y7.971 E.02103
G1 X-5.236 Y6.679 E.04815
G1 X-4.322 Y7.593 E.04815
M73 P15 R3
G1 X-3.408 Y6.679 E.04815
G1 X-3.408 Y7.316 E.02373
G1 E-.8 F2100
;WIPE_START
G1 F4800
G1 X-3.408 Y6.679
G1 X-4.322 Y7.593
G1 X-4.371 Y7.543
;WIPE_END
G1 X-3.679 Y8.428 Z.6 F30000
G1 Z.2
G1 E.8 F2100
G1 F4800
G1 X-3.865 Y8.428 E.00692
G1 X-3.865 Y7.782 E.02408
G1 X-4.322 Y8.239 E.02408
G1 X-4.779 Y7.782 E.02408
G1 X-4.779 Y8.428 E.02408
G1 X-5.425 Y8.428 E.02408
G1 X-4.968 Y8.886 E.02408
G1 X-5.425 Y9.343 E.02408
G1 X-4.779 Y9.343 E.02408
G1 X-4.322 Y8.886 E.02408
G1 X-3.645 Y9.343 F30000
G1 F4800
G1 X-3.865 Y9.343 E.00819
G1 X-3.865 Y9.989 E.02408
G1 X-4.322 Y9.532 E.02408
G1 X-5.236 Y10.446 E.04815
G1 X-5.236 Y9.8 E.02408
G1 X-5.801 Y9.8 E.02103
G1 X-5.801 Y10.257 F30000
G1 F4800
G1 X-5.693 Y10.257 E.00401
G1 X-5.693 Y11.55 E.04815
G1 X-4.322 Y10.178 E.07223
G1 X-3.408 Y11.093 E.04815
G1 X-3.408 Y10.184 E.03384
G1 X-2.951 Y10.97 F30000
G1 F4800
G1 X-2.951 Y11.35 E.01415
G1 X-3.796 Y11.35 F30000
G1 F4800
G1 X-4.322 Y10.825 E.02767
G1 X-4.882 Y11.385 E.0295
G1 E-.8 F2100
;WIPE_START
G1 F4800
G1 X-4.322 Y10.825
G1 X-3.796 Y11.35
;WIPE_END
G1 X-6.372 Y13.133 Z.6 F30000
G1 Z.2
G1 E.8 F2100
;TYPE:Gap infill
;WIDTH:0.133257
G1 F3000
G3 X-6.039 Y12.713 I8.673 J6.547 E.00395
G1 X-6.053 Y12.701 F30000
;WIDTH:0.225326
G1 F3000
G1 X-6.279 Y13.022 E.00583
;WIDTH:0.213697
G1 X-6.294 Y13.11 E.00125
;WIDTH:0.182085
G1 X-6.31 Y13.204 E.00109
;WIDTH:0.143471
G1 X-6.333 Y13.388 E.00152
;WIDTH:0.121092
G1 X-6.344 Y13.542 E.00099
G1 E-.8 F2100
;WIPE_START
G1 F3000
G1 X-6.333 Y13.388
;WIPE_END
G1 X-6.372 Y14.922 Z.6 F30000
G1 Z.2
G1 E.8 F2100
;WIDTH:0.113073
M73 P16 R3
G1 F3000
G2 X-5.442 Y15.208 I3.2 J-8.758 E.00556
G1 X-5.447 Y15.224 F30000
;WIDTH:0.201449
G1 F3000
G1 X-6.372 Y14.854 E.01287
G1 X-6.372 Y14.806 F30000
;WIDTH:0.314823
G1 F3000
G1 X-5.5 Y15.226 E.02144
G1 X-5.557 Y15.218 F30000
;WIDTH:0.487685
G1 F3000
G1 X-6.145 Y14.921 E.02389
G1 X-6.372 Y14.234 E.02624
G1 X-6.372 Y14.171 F30000
;WIDTH:0.37432
G1 F3000
G1 X-6.082 Y15.152 E.02762
G1 X-6.116 Y15.15 F30000
;WIDTH:0.264552
G1 F3000
G1 X-6.372 Y14.053 E.02034
G1 X-6.344 Y13.942 F30000
;WIDTH:0.127303
G1 F3000
G1 X-6.329 Y14.126 E.00127
;WIDTH:0.153219
G1 X-6.304 Y14.313 E.0017
;WIDTH:0.179657
G1 X-6.165 Y15.147 E.00942
G1 E-.8 F2100
;WIPE_START
G1 F3000
G1 X-6.304 Y14.313
;WIPE_END
G1 X-6.226 Y6.681 Z.6 F30000
G1 X-6.004 Y-15.183 Z.6
G1 Z.2
G1 E.8 F2100
;WIDTH:0.696806
G1 F3000
G1 X-6.037 Y-14.85 E.01785
;WIDTH:0.662062
G2 X-6.073 Y-14.482 I6.313 J.805 E.01867
;WIDTH:0.618806
G2 X-6.097 Y-13.925 I16.108 J.951 E.02616
;WIDTH:0.588644
G1 X-6.101 Y-8.351 E.24785
G1 X-5.916 Y-7.74 F30000
;WIDTH:0.351684
G1 F3000
G1 X5.916 Y-7.74 E.29768
G1 X6.101 Y-8.351 F30000
;WIDTH:0.588645
G1 F3000
G1 X6.097 Y-13.925 E.24785
;WIDTH:0.618806
G2 X6.073 Y-14.482 I-16.131 J.394 E.02616
;WIDTH:0.662063
G2 X6.037 Y-14.85 I-6.349 J.437 E.01867
;WIDTH:0.696807
G1 X6.004 Y-15.183 E.01785
M106 S255
M106 P2 S255
;LAYER_CHANGE
;Z:0.4
;HEIGHT:0.2
;BEFORE_LAYER_CHANGE
;0.4
G1 E-.8 F2100
;WIPE_START
G1 F3000
G1 X6.037 Y-14.85
;WIPE_END
;AFTER_LAYER_CHANGE
;0.4
;_SET_FAN_SPEED_CHANGING_LAYER
SET_VELOCITY_LIMIT ACCEL=10000
M140 S50 ; set bed temperature
G17
G3 Z.6 I-1.153 J-.39 P1  F30000
G1 X-1.123 Y6.284 Z.6
G1 Z.4
G1 E.8 F2100
SET_VELOCITY_LIMIT ACCEL=5000
;TYPE:Outer wall
;WIDTH:0.42
G1 F6842
G1 X-.784 Y6.155 E.01113
G3 X-.419 Y6.072 I.779 J2.592 E.01151
G1 X-.223 Y6.049 E.00607
G3 X-1.16 Y6.299 I.218 J2.698 E.49264
SET_VELOCITY_LIMIT ACCEL=10000
G1 E-.8 F2100
;WIPE_START
G1 F12000
G1 X-.784 Y6.155
G1 X-.419 Y6.072
G1 X-.223 Y6.049
G1 X.14 Y6.044
G1 X.327 Y6.06
G1 X.694 Y6.13
G1 X.791 Y6.16
;WIPE_END
M73 P17 R3
G1 X4.775 Y12.368 Z.8 F30000
G1 Z.4
G1 E.8 F2100
SET_VELOCITY_LIMIT ACCEL=5000
G1 F6842
G3 X4.505 Y15.16 I-.281 J1.382 E.12705
G1 X-4.505 Y15.16 E.27686
G3 X-4.505 Y12.34 I.012 J-1.41 E.13539
G1 X4.505 Y12.34 E.27686
G3 X4.736 Y12.361 I-.012 J1.41 E.00712
SET_VELOCITY_LIMIT ACCEL=10000
G1 E-.8 F2100
;WIPE_START
G1 F12000
G1 X5.04 Y12.447
G1 X5.283 Y12.577
G1 X5.497 Y12.753
G1 X5.673 Y12.966
G1 X5.803 Y13.21
G1 X5.883 Y13.475
G1 X5.91 Y13.75
G1 X5.908 Y13.775
;WIPE_END
G1 X-1.672 Y14.674 Z.8 F30000
G1 X-5.663 Y15.148 Z.8
G1 Z.4
G1 E.8 F2100
SET_VELOCITY_LIMIT ACCEL=5000
;TYPE:Inner wall
;WIDTH:0.45
G1 F6842
G1 X-6.398 Y15.148 E.02437
G1 X-6.398 Y14.395 E.02498
G1 X-6.207 Y14.352 E.00648
G1 X-6.09 Y14.6 E.0091
G2 X-5.692 Y15.12 I2.142 J-1.228 E.02179
SET_VELOCITY_LIMIT ACCEL=10000
G1 E-.8 F2100
;WIPE_START
G1 F18000
G1 X-6.398 Y15.148
G1 X-6.398 Y14.395
G1 X-6.207 Y14.352
G1 X-6.09 Y14.6
G1 X-6.051 Y14.658
;WIPE_END
G1 X1.579 Y14.468 Z.8 F30000
G1 X6.207 Y14.352 Z.8
G1 Z.4
G1 E.8 F2100
SET_VELOCITY_LIMIT ACCEL=5000
G1 F6842
G1 X6.398 Y14.395 E.00648
G1 X6.398 Y15.148 E.02498
G1 X5.663 Y15.148 E.02437
G2 X6.191 Y14.388 I-1.833 J-1.837 E.03084
SET_VELOCITY_LIMIT ACCEL=10000
G1 E-.8 F2100
;WIPE_START
G1 F18000
G1 X6.398 Y14.395
G1 X6.398 Y15.148
G1 X5.663 Y15.148
G1 X5.86 Y14.915
;WIPE_END
G1 X2.382 Y8.121 Z.8 F30000
G1 X-5.21 Y-6.71 Z.8
G1 Z.4
G1 E.8 F2100
SET_VELOCITY_LIMIT ACCEL=5000
;TYPE:Outer wall
;WIDTH:0.42
G1 F6842
G1 X5.21 Y-6.71 E.32018
G1 X5.21 Y5.21 E.36627
G1 X-5.21 Y5.21 E.32018
G1 X-5.21 Y-6.67 E.36504
SET_VELOCITY_LIMIT ACCEL=10000
G1 E-.8 F2100
;WIPE_START
G1 F12000
G1 X-3.21 Y-6.678
;WIPE_END
G1 X-5.41 Y-8.378 Z.8 F30000
G1 Z.4
G1 E.8 F2100
SET_VELOCITY_LIMIT ACCEL=5000
;TYPE:Inner wall
;WIDTH:0.45
G1 F6842
G1 X5.802 Y-8.378 E.37193
G1 X5.802 Y-15.148 E.22457
G1 X6.398 Y-15.148 E.01977
G1 X6.398 Y13.105 E.93721
G1 X6.207 Y13.148 E.00648
G2 X4.515 Y11.948 I-1.741 J.661 E.073
G1 X.857 Y11.948 E.12133
M73 P18 R3
G1 X.826 Y11.739 E.00699
G2 X.971 Y5.802 I-.829 J-2.991 E.2627
